src/assets/outline/Redo.svg

<svg width="24" height="24" viewBox="0 0 24 24"  xmlns="http://www.w3.org/2000/svg">
<path d="M16.8701 19.0601H8.87012C5.70012 19.0601 3.12012 16.4801 3.12012 13.3101C3.12012 10.1401 5.70012 7.56006 8.87012 7.56006H19.8701C20.2801 7.56006 20.6201 7.90006 20.6201 8.31006C20.6201 8.72006 20.2801 9.06006 19.8701 9.06006H8.87012C6.53012 9.06006 4.62012 10.9701 4.62012 13.3101C4.62012 15.6501 6.53012 17.5601 8.87012 17.5601H16.8701C17.2801 17.5601 17.6201 17.9001 17.6201 18.3101C17.6201 18.7201 17.2901 19.0601 16.8701 19.0601Z" />
<path d="M17.5698 11.5599C17.3798 11.5599 17.1898 11.4899 17.0398 11.3399C16.7498 11.0499 16.7498 10.5699 17.0398 10.2799L19.0698 8.24988L17.0398 6.21988C16.7498 5.92988 16.7498 5.44988 17.0398 5.15988C17.3298 4.86988 17.8098 4.86988 18.0998 5.15988L20.6598 7.71988C20.9498 8.00988 20.9498 8.48988 20.6598 8.77988L18.0998 11.3399C17.9498 11.4899 17.7598 11.5599 17.5698 11.5599Z" />
</svg>

<?xml version="1.0" encoding="UTF-8"?>
<svg width="24" height="24" viewBox="0 0 24 24" xmlns="http://www.w3.org/2000/svg">
 <path d="m16.87 19.06h-8c-3.17 0-5.75-2.58-5.75-5.75s2.58-5.75 5.75-5.75h11c0.41 0 0.75 0.34 0.75 0.75s-0.34 0.75-0.75 0.75h-11c-2.34 0-4.25 1.91-4.25 4.25s1.91 4.25 4.25 4.25h8c0.41 0 0.75 0.34 0.75 0.75s-0.33 0.75-0.75 0.75z"/>
 <path d="m17.57 11.56c-0.19 0-0.38-0.07-0.53-0.22-0.29-0.29-0.29-0.77 0-1.06l2.03-2.03-2.03-2.03c-0.29-0.29-0.29-0.77 0-1.06s0.77-0.29 1.06 0l2.56 2.56c0.29 0.29 0.29 0.77 0 1.06l-2.56 2.56c-0.15 0.15-0.34 0.22-0.53 0.22z"/>
</svg>
